dominospizza.svg

<svg viewBox="0 0 24 24" xmlns="http://www.w3.org/2000/svg"><path d="M7.73949 7.72401L15.017 0.446503C15.5599-0.0963756 16.1761-0.199082 16.8364 0.446503L23.6004 7.21048C24.0845 7.69467 24.0405 8.42829 23.6004 8.86846L8.88394 23.5702C8.35574 24.0984 7.66613 24.1864 7.04989 23.5702L0.432641 16.9529C-0.0955652 16.4247-0.051548 15.5884 0.432641 15.1042L7.73949 7.72401Z" fill="#ffffff"/><path d="M7.85687 8.4723L15.4718 16.0873L8.54648 23.0126C8.12098 23.4381 7.68081 23.4528 7.24063 23.0126L0.902158 16.6742C0.506003 16.278 0.535348 15.8378 0.902158 15.471L7.85687 8.4723Z" fill="#006491"/><path d="M15.956 15.6324L8.34106 8.01746L15.2664 1.09209C15.6919 0.666589 16.1321 0.651916 16.5723 1.09209L22.9108 7.43056C23.3069 7.82672 23.2776 8.26689 22.9108 8.6337L15.956 15.6324Z" fill="#e31837"/><path d="M14.034 8.03213C14.034 6.9949 14.8748 6.15407 15.912 6.15407C16.9492 6.15407 17.7901 6.9949 17.7901 8.03213C17.7901 9.06936 16.9492 9.9102 15.912 9.9102C14.8748 9.9102 14.034 9.06936 14.034 8.03213ZM8.76656 16.0873C8.76656 15.0501 9.6074 14.2092 10.6446 14.2092C11.6819 14.2092 12.5227 15.0501 12.5227 16.0873C12.5227 17.1245 11.6819 17.9653 10.6446 17.9653C9.6074 17.9653 8.76656 17.1245 8.76656 16.0873ZM3.27909 16.0873C3.27909 15.0501 4.11992 14.2092 5.15715 14.2092C6.19438 14.2092 7.03522 15.0501 7.03522 16.0873C7.03522 17.1245 6.19438 17.9653 5.15715 17.9653C4.11992 17.9653 3.27909 17.1245 3.27909 16.0873Z" fill="#ffffff"/></svg>

<svg viewBox="0 0 24 24" xmlns="http://www.w3.org/2000/svg"><path d="M7.74 7.724 15.016.447c.543-.543 1.16-.646 1.82 0L23.6 7.21c.484.485.44 1.218 0 1.658L8.884 23.57c-.528.528-1.218.616-1.834 0L.433 16.953a1.315 1.315 0 0 1 0-1.849l7.306-7.38Z" fill="#fff"/><path d="m7.857 8.472 7.615 7.615-6.926 6.926c-.425.425-.865.44-1.305 0L.902 16.674c-.396-.396-.367-.836 0-1.203l6.955-6.999Z" fill="#006491"/><path d="M15.956 15.632 8.341 8.017l6.925-6.925c.426-.425.866-.44 1.306 0l6.339 6.339c.396.396.367.836 0 1.203l-6.955 6.998Z" fill="#e31837"/><path d="M14.034 8.032a1.878 1.878 0 1 1 3.756 0 1.878 1.878 0 0 1-3.756 0Zm-5.267 8.055a1.878 1.878 0 1 1 3.756 0 1.878 1.878 0 0 1-3.756 0Zm-5.488 0a1.878 1.878 0 1 1 3.756 0 1.878 1.878 0 0 1-3.756 0Z" fill="#fff"/></svg>
